source/images/projects/pandoc-templates.svg

<svg width="114" height="114" viewBox="0 0 114 114" xmlns="http://www.w3.org/2000/svg"><title>pandoc-templates</title><path d="M1 1h32v112H1V1zm8 8h8v96H9V9zm16 0h8v96h-8V9zm56-8h32v112H81V1zm0 8h8v96h-8V9zm16 0h8v96h-8V9zM33 25h48v64H33V25zm8 8h32v48H41V33z" fill="#343D46" fill-rule="evenodd"/></svg>

<?xml version="1.0" encoding="UTF-8" standalone="no"?>
<svg width="114px" height="114px" viewBox="0 0 114 114" version="1.1" xmlns="http://www.w3.org/2000/svg" xmlns:xlink="http://www.w3.org/1999/xlink" xmlns:sketch="http://www.bohemiancoding.com/sketch/ns">
    <!-- Generator: Sketch 3.3.3 (12081) - http://www.bohemiancoding.com/sketch -->
    <title>pandoc-templates</title>
    <desc>Created with Sketch.</desc>
    <defs></defs>
    <g id="Page-1" stroke="none" stroke-width="1" fill="none" fill-rule="evenodd" sketch:type="MSPage">
        <path d="M1,1 L33,1 L33,113 L1,113 L1,1 L1,1 Z M9,9 L17,9 L17,105 L9,105 L9,9 L9,9 Z M25,9 L33,9 L33,105 L25,105 L25,9 L25,9 Z M81,1 L113,1 L113,113 L81,113 L81,1 L81,1 Z M81,9 L89,9 L89,105 L81,105 L81,9 L81,9 Z M97,9 L105,9 L105,105 L97,105 L97,9 L97,9 Z M33,25 L81,25 L81,89 L33,89 L33,25 L33,25 Z M41,33 L73,33 L73,81 L41,81 L41,33 L41,33 Z" id="Rectangle-1" fill="#343D46" sketch:type="MSShapeGroup"></path>
    </g>
</svg>
